www/assets/icons/lightbulb.svg

<svg xmlns="http://www.w3.org/2000/svg" width="24" height="24" viewBox="0 0 24 24" fill='currentColor'><path d="M9 21c0 .5.4 1 1 1h4c.6 0 1-.5 1-1v-1H9zm3-19C8.1 2 5 5.1 5 9c0 2.4 1.2 4.5 3 5.7V17c0 .5.4 1 1 1h6c.6 0 1-.5 1-1v-2.3c1.8-1.3 3-3.4 3-5.7 0-3.9-3.1-7-7-7"/></svg>

<svg width="24" height="24" viewBox="0 0 24 24" xmlns="http://www.w3.org/2000/svg" fill='currentColor'><path d="M9 21C9 21.5 9.4 22 10 22H14C14.6 22 15 21.5 15 21V20H9V21ZM12 2C8.1 2 5 5.1 5 9C5 11.4 6.2 13.5 8 14.7V17C8 17.5 8.4 18 9 18H15C15.6 18 16 17.5 16 17V14.7C17.8 13.4 19 11.3 19 9C19 5.1 15.9 2 12 2Z"/></svg>
